X: 092
T: 5 La petite Nannette
T: la Petite Nannette
B: Robert Landrin "Potpourri fran\,cois des contre-danse ancienne tel quil se danse chez la Reine ..." 1760 p.9 #2 dance 03 #5
S: http://memory.loc.gov/cgi-bin/query/D?musdibib:2:./temp/~ammem_EbRS:
Z: 2014 John Chambers <jc:trillian.mit.edu>
M: 6/8
L: 1/8
K: Gm
% - - - - - - - - - - - - - - - - - - - - - - - - -
G |\
ABc !+!B2A | G3 !+!^F2G | ABc !+!B2A | G3- G2 :|\
|: G |\
"2f"G2d d2e | !+!c3- c2c | c2d c2B | !+!A2G ABc |
!+!B3 cBA | GFG ABc | !+!B3 cBA | G2G ABc |\
!+!B3 cBA | GFG ABc | !+!B3 cBA | G3- G2 :|
% - - - - - - - - - - - - - - - - - - - - - - - - -

%%sep 1 1 500
%%sep 1 1 500
